( Made using CamBam - http://www.cambam.co.uk )
( base_1 6/26/2019 6:28:59 PM )
( T1 : 1.0 )
G21 G90 G64 G40
G0 Z3.0
( T1 : 1.0 )
T1 M6
( Contour1 )
G17
M3
G0 X28.0 Y37.0
G0 Z0.1
G1 F300.0 Z-1.0
G1 F400.0 X25.0
G2 Y37.5 I25.0 J37.25
G1 X28.0
G2 Y37.0 I28.0 J37.25
G1 F300.0 Z-2.0
G1 F400.0 X25.0
G2 Y37.5 I25.0 J37.25
G1 X28.0
G2 Y37.0 I28.0 J37.25
G0 Z3.0
G0 X38.3436 Y28.786
G0 Z0.1
G1 F300.0 Z-1.0
G2 F400.0 X53.5 Y23.5 I45.0 J23.5
G2 X36.5 I45.0 J23.5
G2 X38.3436 Y28.786 I45.0 J23.5
G1 F300.0 Z-2.0
G2 F400.0 X53.5 Y23.5 I45.0 J23.5
G2 X36.5 I45.0 J23.5
G2 X38.3436 Y28.786 I45.0 J23.5
G0 Z3.0
G0 X43.3699 Y37.0365
G0 Z0.1
G1 F300.0 Z-1.0
G2 F400.0 X43.5 Y37.5 I43.5 J37.25
G1 X46.5
G2 Y37.0 I46.5 J37.25
G1 X43.5
G2 X43.3699 Y37.0365 I43.5 J37.25
G1 F300.0 Z-2.0
G2 F400.0 X43.5 Y37.5 I43.5 J37.25
G1 X46.5
G2 Y37.0 I46.5 J37.25
G1 X43.5
G2 X43.3699 Y37.0365 I43.5 J37.25
G0 Z3.0
G0 X61.75 Y37.2471
G0 Z0.1
G1 F300.0 Z-1.0
G2 F400.0 X62.0 Y37.5 I62.0 J37.25
G1 X65.0
G2 Y37.0 I65.0 J37.25
G1 X62.0
G2 X61.75 Y37.2471 I62.0 J37.25
G1 F300.0 Z-2.0
G2 F400.0 X62.0 Y37.5 I62.0 J37.25
G1 X65.0
G2 Y37.0 I65.0 J37.25
G1 X62.0
G2 X61.75 Y37.2471 I62.0 J37.25
G0 Z3.0
G0 X61.9977 Y10.0
G0 Z0.1
G1 F300.0 Z-1.0
G2 F400.0 X62.0 I62.0 J9.75
G1 X65.0
G2 Y9.5 I65.0 J9.75
G1 X62.0
G2 X61.9977 Y10.0 I62.0 J9.75
G1 F300.0 Z-2.0
G2 F400.0 X62.0 I62.0 J9.75
G1 X65.0
G2 Y9.5 I65.0 J9.75
G1 X62.0
G2 X61.9977 Y10.0 I62.0 J9.75
G0 Z3.0
G0 X46.75 Y9.754
G0 Z0.1
G1 F300.0 Z-1.0
G2 F400.0 X46.5 Y9.5 I46.5 J9.75
G1 X43.5
G2 Y10.0 I43.5 J9.75
G1 X46.5
G2 X46.75 Y9.754 I46.5 J9.75
G1 F300.0 Z-2.0
G2 F400.0 X46.5 Y9.5 I46.5 J9.75
G1 X43.5
G2 Y10.0 I43.5 J9.75
G1 X46.5
G2 X46.75 Y9.754 I46.5 J9.75
G0 Z3.0
G0 X28.25 Y9.7501
G0 Z0.1
G1 F300.0 Z-1.0
G2 F400.0 X28.0 Y9.5 I28.0 J9.75
G1 X25.0
G2 Y10.0 I25.0 J9.75
G1 X28.0
G2 X28.25 Y9.7501 I28.0 J9.75
G1 F300.0 Z-2.0
G2 F400.0 X28.0 Y9.5 I28.0 J9.75
G1 X25.0
G2 Y10.0 I25.0 J9.75
G1 X28.0
G2 X28.25 Y9.7501 I28.0 J9.75
G0 Z3.0
G0 X8.9331 Y20.8965
G0 Z0.1
G1 F300.0 Z-1.0
G2 F400.0 X8.8536 Y20.7929 I8.5 J21.1464
G1 X7.4142 Y19.3536
G2 X4.0 Y20.7678 I6.0 J20.7678
G1 Y23.5
G1 Y26.2322
G2 X7.4142 Y27.6464 I6.0 J26.2322
G1 X8.8536 Y26.2071
G2 X9.0 Y25.8536 I8.5 J25.8536
G1 Y23.5
G1 Y21.1464
G2 X8.9331 Y20.8965 I8.5 J21.1464
G1 F300.0 Z-2.0
G2 F400.0 X8.8536 Y20.7929 I8.5 J21.1464
G1 X7.4142 Y19.3536
G2 X4.0 Y20.7678 I6.0 J20.7678
G1 Y23.5
G1 Y26.2322
G2 X7.4142 Y27.6464 I6.0 J26.2322
G1 X8.8536 Y26.2071
G2 X9.0 Y25.8536 I8.5 J25.8536
G1 Y23.5
G1 Y21.1464
G2 X8.9331 Y20.8965 I8.5 J21.1464
( Contour2 )
G0 Z3.0
G0 X63.4592 Y45.5477
G0 Z0.1
G1 F300.0 Z-1.0
G3 F400.0 X60.3174 Y42.6687 I63.7642 J42.061
G1 X59.9772 Y40.7395
G2 X58.5 Y39.5 I58.5 J41.0
G1 X31.5
G2 X30.0228 Y40.7395 I31.5 J41.0
G1 X29.3387 Y44.6192
G3 X25.5868 Y47.4981 I25.8919 J44.0114
G1 X18.8575 Y46.9094
G3 X6.1485 Y40.9831 I20.6442 J26.4874
G1 X4.3327 Y39.1673
G3 X-0.5 Y27.5 I16.0 J27.5
G1 Y23.5
G1 Y19.5
G3 X4.3327 Y7.8327 I16.0 J19.5
G1 X6.1485 Y6.0169
G3 X18.8575 Y0.0906 I20.6442 J20.5126
G1 X25.5868 Y-0.4981
G3 X29.3387 Y2.3808 I25.8919 J2.9886
G1 X30.0228 Y6.2605
G2 X31.5 Y7.5 I31.5 J6.0
G1 X58.5
G2 X59.9772 Y6.2605 I58.5 J6.0
G1 X60.3174 Y4.3313
G3 X63.4592 Y1.4523 I63.7642 J4.939
G1 X68.6078 Y1.0019
G3 X73.5 Y5.4848 I69.0 J5.4848
G1 Y11.5
G3 X73.125 Y12.4922 I72.0 J11.5
G2 X73.0 Y12.8229 I73.5 J12.8229
G1 Y23.5
G1 Y34.1771
G2 X73.125 Y34.5078 I73.5 J34.1771
G3 X73.5 Y35.5 I72.0 J35.5
G1 Y41.5152
G3 X68.6078 Y45.9981 I69.0 J41.5152
G1 X63.4592 Y45.5477
G1 F300.0 Z-2.0
G3 F400.0 X60.3174 Y42.6687 I63.7642 J42.061
G1 X59.9772 Y40.7395
G2 X58.5 Y39.5 I58.5 J41.0
G1 X31.5
G2 X30.0228 Y40.7395 I31.5 J41.0
G1 X29.3387 Y44.6192
G3 X25.5868 Y47.4981 I25.8919 J44.0114
G1 X18.8575 Y46.9094
G3 X6.1485 Y40.9831 I20.6442 J26.4874
G1 X4.3327 Y39.1673
G3 X-0.5 Y27.5 I16.0 J27.5
G1 Y23.5
G1 Y19.5
G3 X4.3327 Y7.8327 I16.0 J19.5
G1 X6.1485 Y6.0169
G3 X18.8575 Y0.0906 I20.6442 J20.5126
G1 X25.5868 Y-0.4981
G3 X29.3387 Y2.3808 I25.8919 J2.9886
G1 X30.0228 Y6.2605
G2 X31.5 Y7.5 I31.5 J6.0
G1 X58.5
G2 X59.9772 Y6.2605 I58.5 J6.0
G1 X60.3174 Y4.3313
G3 X63.4592 Y1.4523 I63.7642 J4.939
G1 X68.6078 Y1.0019
G3 X73.5 Y5.4848 I69.0 J5.4848
G1 Y11.5
G3 X73.125 Y12.4922 I72.0 J11.5
G2 X73.0 Y12.8229 I73.5 J12.8229
G1 Y23.5
G1 Y34.1771
G2 X73.125 Y34.5078 I73.5 J34.1771
G3 X73.5 Y35.5 I72.0 J35.5
G1 Y41.5152
G3 X68.6078 Y45.9981 I69.0 J41.5152
G1 X63.4592 Y45.5477
G0 Z3.0
M5
M30
