( Made using CamBam - http://www.cambam.co.uk )
( flanc_1 6/27/2019 10:24:58 PM )
( T1 : 1.0 )
G21 G90 G64 G40
G0 Z3.0
( T1 : 1.0 )
T1 M6
( Contour1 )
G17
M3
G0 X13.8 Y14.5
G0 Z0.1
G1 F300.0 Z-1.0
G1 F400.0 X9.8
G0 Z3.0
G0 X13.8
G0 Z-0.9
G1 F300.0 Z-2.0
G1 F400.0 X9.8
G0 Z3.0
G0 X7.2136 Y8.9061
G0 Z0.1
G1 F300.0 Z-1.0
G2 F400.0 X8.4323 Y7.0 I6.3323 J7.0
G2 X5.2823 Y5.1813 I6.3323 J7.0
G2 Y8.8187 I6.3323 J7.0
G2 X7.2136 Y8.9061 I6.3323 J7.0
G1 F300.0 Z-2.0
G2 F400.0 X8.4323 Y7.0 I6.3323 J7.0
G2 X5.2823 Y5.1813 I6.3323 J7.0
G2 Y8.8187 I6.3323 J7.0
G2 X7.2136 Y8.9061 I6.3323 J7.0
G0 Z3.0
G0 X13.4206 Y7.8981
G0 Z0.1
G1 F300.0 Z-1.0
G2 F400.0 X13.5668 Y8.1098 I13.7168 J7.85
G2 X14.0168 Y7.85 I13.7168 J7.85
G2 X13.5668 Y7.5902 I13.7168 J7.85
G2 X13.4206 Y7.8981 I13.7168 J7.85
G1 F300.0 Z-2.0
G2 F400.0 X13.5668 Y8.1098 I13.7168 J7.85
G2 X14.0168 Y7.85 I13.7168 J7.85
G2 X13.5668 Y7.5902 I13.7168 J7.85
G2 X13.4206 Y7.8981 I13.7168 J7.85
G0 Z3.0
G0 X22.7 Y7.8505
G0 Z0.1
G1 F300.0 Z-1.0
G2 F400.0 X22.75 Y7.9366 I22.8 J7.85
G2 X22.9 Y7.85 I22.8 J7.85
G2 X22.75 Y7.7634 I22.8 J7.85
G2 X22.7 Y7.8505 I22.8 J7.85
G1 F300.0 Z-2.0
G2 F400.0 X22.75 Y7.9366 I22.8 J7.85
G2 X22.9 Y7.85 I22.8 J7.85
G2 X22.75 Y7.7634 I22.8 J7.85
G2 X22.7 Y7.8505 I22.8 J7.85
G0 Z3.0
G0 X22.7999 Y1.505
G0 Z0.1
G1 F300.0 Z-1.0
G2 F400.0 X22.805 Y1.5 I22.8 J1.5
G2 X22.7975 Y1.4957 I22.8 J1.5
G2 Y1.5043 I22.8 J1.5
G2 X22.7999 Y1.505 I22.8 J1.5
G1 F300.0 Z-2.0
G2 F400.0 X22.805 Y1.5 I22.8 J1.5
G2 X22.7975 Y1.4957 I22.8 J1.5
G2 Y1.5043 I22.8 J1.5
G2 X22.7999 Y1.505 I22.8 J1.5
G0 Z3.0
G0 X31.6373 Y7.6782
G0 Z0.1
G1 F300.0 Z-1.0
G2 F400.0 X31.7332 Y8.1098 I31.8832 J7.85
G2 X32.1832 Y7.85 I31.8832 J7.85
G2 X31.7332 Y7.5902 I31.8832 J7.85
G2 X31.6373 Y7.6782 I31.8832 J7.85
G1 F300.0 Z-2.0
G2 F400.0 X31.7332 Y8.1098 I31.8832 J7.85
G2 X32.1832 Y7.85 I31.8832 J7.85
G2 X31.7332 Y7.5902 I31.8832 J7.85
G2 X31.6373 Y7.6782 I31.8832 J7.85
G0 Z3.0
G0 X37.1262 Y7.1903
G0 Z0.1
G1 F300.0 Z-1.0
G2 F400.0 X38.1927 Y8.862 I39.2677 J7.0
G2 X41.4177 Y7.0 I39.2677 J7.0
G2 X38.1927 Y5.138 I39.2677 J7.0
G2 X37.1262 Y7.1903 I39.2677 J7.0
G1 F300.0 Z-2.0
G2 F400.0 X38.1927 Y8.862 I39.2677 J7.0
G2 X41.4177 Y7.0 I39.2677 J7.0
G2 X38.1927 Y5.138 I39.2677 J7.0
G2 X37.1262 Y7.1903 I39.2677 J7.0
G0 Z3.0
G0 X41.297 Y1.504
G0 Z0.1
G1 F300.0 Z-1.0
G1 F400.0 X41.2975 Y1.5043
G2 X41.305 Y1.5 I41.3 J1.5
G2 X41.2975 Y1.4957 I41.3 J1.5
G2 X41.297 Y1.504 I41.3 J1.5
G1 F300.0 Z-2.0
G1 F400.0 X41.2975 Y1.5043
G2 X41.305 Y1.5 I41.3 J1.5
G2 X41.2975 Y1.4957 I41.3 J1.5
G2 X41.297 Y1.504 I41.3 J1.5
G0 Z3.0
G0 X35.8 Y14.5
G0 Z0.1
G1 F300.0 Z-1.0
G1 F400.0 X31.8
G0 Z3.0
G0 X35.8
G0 Z-0.9
G1 F300.0 Z-2.0
G1 F400.0 X31.8
( Contour2 )
G0 Z3.0
G0 X2.3 Y2.969
G0 Z0.1
G1 F300.0 Z-1.0
G1 F400.0 Y2.7071
G3 X2.4464 Y2.3536 I2.8 J2.7071
G3 X2.0929 Y2.5 I2.0929 J2.0
G1 X1.3
G3 Y0.0 I1.3 J1.25
G1 X4.7365
G3 X5.0427 Y0.1047 I4.7365 J0.5
G3 X6.2743 Y1.8419 I2.8 J3.0
G3 X6.3 Y2.0 I5.8 J2.0
G1 Y3.0
G3 X6.8 Y2.5 I6.8 J3.0
G1 X7.3
G3 X7.4292 Y2.517 I7.3 J3.0
G2 X17.8537 Y4.3307 I22.8 J-54.9634
G2 X19.3 Y3.0 I17.9647 J3.0
G3 X19.8 Y2.5 I19.8 J3.0
G1 X20.3
G3 X20.8 Y3.0 I20.3 J3.0
G1 Y1.5
G3 X20.8385 Y1.3077 I21.3 J1.5
G3 X24.7615 I22.8 J2.125
G3 X24.8 Y1.5 I24.3 J1.5
G1 Y3.0
G3 X25.3 Y2.5 I25.3 J3.0
G1 X25.8
G3 X26.3 Y3.0 I25.8 J3.0
G2 X27.7463 Y4.3307 I27.6353 J3.0
G2 X38.1708 Y2.517 I22.8 J-54.9634
G3 X38.3 Y2.5 I38.3 J3.0
G1 X38.8
G3 X39.3 Y3.0 I38.8 J3.0
G1 Y1.5
G3 X39.3385 Y1.3077 I39.8 J1.5
G3 X43.2615 I41.3 J2.125
G3 X43.3 Y1.5 I42.8 J1.5
G1 Y2.969
G1 X43.7332 Y6.4433
G3 X39.0358 Y11.494 I39.2677 J7.0
G2 X37.6048 Y13.6383 I38.9585 J12.992
G3 X35.8 Y16.5 I35.8 J14.5
G1 X31.8
G3 X30.1587 Y13.3572 I31.8 J14.5
G2 X29.6552 Y11.1883 I28.9277 J12.5001
G1 X25.6189 Y8.9497
G2 X24.947 Y9.1308 I25.3764 J9.387
G3 X20.653 I22.8 J7.85
G2 X19.9811 Y8.9497 I20.2236 J9.387
G1 X15.9448 Y11.1883
G2 X15.4413 Y13.3572 I16.6723 J12.5001
G3 X13.8 Y16.5 I13.8 J14.5
G1 X9.8
G3 X7.9952 Y13.6383 I9.8 J14.5
G2 X6.5642 Y11.494 I6.6415 J12.992
G3 X1.8668 Y6.4433 I6.3323 J7.0
G1 X2.3 Y2.969
G1 F300.0 Z-2.0
G1 F400.0 Y2.7071
G3 X2.4464 Y2.3536 I2.8 J2.7071
G3 X2.0929 Y2.5 I2.0929 J2.0
G1 X1.3
G3 Y0.0 I1.3 J1.25
G1 X4.7365
G3 X5.0427 Y0.1047 I4.7365 J0.5
G3 X6.2743 Y1.8419 I2.8 J3.0
G3 X6.3 Y2.0 I5.8 J2.0
G1 Y3.0
G3 X6.8 Y2.5 I6.8 J3.0
G1 X7.3
G3 X7.4292 Y2.517 I7.3 J3.0
G2 X17.8537 Y4.3307 I22.8 J-54.9634
G2 X19.3 Y3.0 I17.9647 J3.0
G3 X19.8 Y2.5 I19.8 J3.0
G1 X20.3
G3 X20.8 Y3.0 I20.3 J3.0
G1 Y1.5
G3 X20.8385 Y1.3077 I21.3 J1.5
G3 X24.7615 I22.8 J2.125
G3 X24.8 Y1.5 I24.3 J1.5
G1 Y3.0
G3 X25.3 Y2.5 I25.3 J3.0
G1 X25.8
G3 X26.3 Y3.0 I25.8 J3.0
G2 X27.7463 Y4.3307 I27.6353 J3.0
G2 X38.1708 Y2.517 I22.8 J-54.9634
G3 X38.3 Y2.5 I38.3 J3.0
G1 X38.8
G3 X39.3 Y3.0 I38.8 J3.0
G1 Y1.5
G3 X39.3385 Y1.3077 I39.8 J1.5
G3 X43.2615 I41.3 J2.125
G3 X43.3 Y1.5 I42.8 J1.5
G1 Y2.969
G1 X43.7332 Y6.4433
G3 X39.0358 Y11.494 I39.2677 J7.0
G2 X37.6048 Y13.6383 I38.9585 J12.992
G3 X35.8 Y16.5 I35.8 J14.5
G1 X31.8
G3 X30.1587 Y13.3572 I31.8 J14.5
G2 X29.6552 Y11.1883 I28.9277 J12.5001
G1 X25.6189 Y8.9497
G2 X24.947 Y9.1308 I25.3764 J9.387
G3 X20.653 I22.8 J7.85
G2 X19.9811 Y8.9497 I20.2236 J9.387
G1 X15.9448 Y11.1883
G2 X15.4413 Y13.3572 I16.6723 J12.5001
G3 X13.8 Y16.5 I13.8 J14.5
G1 X9.8
G3 X7.9952 Y13.6383 I9.8 J14.5
G2 X6.5642 Y11.494 I6.6415 J12.992
G3 X1.8668 Y6.4433 I6.3323 J7.0
G1 X2.3 Y2.969
G0 Z3.0
M5
M30
