( Made using CamBam - http://www.cambam.co.uk )
( Platine_1 6/26/2019 1:51:04 PM )
( T1 : 1.0 )
G21 G90 G64 G40
G0 Z3.0
( T1 : 1.0 )
T1 M6
( Contour1 )
G17
M3
G0 X5.4257 Y24.5423
G0 Z0.1
G1 F300.0 Z-1.0
G1 F500.0 X8.9577 Y20.9681
G3 X7.6981 Y19.7527 I13.5 J15.0
G1 X5.4257 Y24.5423
G1 F300.0 Z-2.0
G1 F500.0 X8.9577 Y20.9681
G3 X7.6981 Y19.7527 I13.5 J15.0
G1 X5.4257 Y24.5423
G0 Z3.0
G0 X7.2876 Y15.9772
G0 Z0.1
G1 F300.0 Z-1.0
G2 F500.0 X8.5 Y15.0 I7.5 J15.0
G2 X6.5 I7.5 J15.0
G2 X7.2876 Y15.9772 I7.5 J15.0
G1 F300.0 Z-2.0
G2 F500.0 X8.5 Y15.0 I7.5 J15.0
G2 X6.5 I7.5 J15.0
G2 X7.2876 Y15.9772 I7.5 J15.0
G0 Z3.0
G0 X11.9582 Y17.0952
G0 Z0.1
G1 F300.0 Z-1.0
G2 F500.0 X12.1 Y17.4249 I12.25 J17.1651
G2 X12.55 Y17.1651 I12.25 J17.1651
G2 X12.1 Y16.9053 I12.25 J17.1651
G2 X11.9582 Y17.0952 I12.25 J17.1651
G1 F300.0 Z-2.0
G2 F500.0 X12.1 Y17.4249 I12.25 J17.1651
G2 X12.55 Y17.1651 I12.25 J17.1651
G2 X12.1 Y16.9053 I12.25 J17.1651
G2 X11.9582 Y17.0952 I12.25 J17.1651
G0 Z3.0
G0 X13.2037 Y15.4027
G0 Z0.1
G1 F300.0 Z-1.0
G2 F500.0 X14.0 Y15.0 I13.5 J15.0
G2 X13.0 I13.5 J15.0
G2 X13.2037 Y15.4027 I13.5 J15.0
G1 F300.0 Z-2.0
G2 F500.0 X14.0 Y15.0 I13.5 J15.0
G2 X13.0 I13.5 J15.0
G2 X13.2037 Y15.4027 I13.5 J15.0
G0 Z3.0
G0 X12.3544 Y13.1162
G0 Z0.1
G1 F300.0 Z-1.0
G2 F500.0 X12.55 Y12.8349 I12.25 J12.8349
G2 X12.1 Y12.5751 I12.25 J12.8349
G2 Y13.0947 I12.25 J12.8349
G2 X12.3544 Y13.1162 I12.25 J12.8349
G1 F300.0 Z-2.0
G2 F500.0 X12.55 Y12.8349 I12.25 J12.8349
G2 X12.1 Y12.5751 I12.25 J12.8349
G2 Y13.0947 I12.25 J12.8349
G2 X12.3544 Y13.1162 I12.25 J12.8349
G0 Z3.0
G0 X15.7335 Y14.8623
G0 Z0.1
G1 F300.0 Z-1.0
G2 F500.0 X15.7 Y15.0 I16.0 J15.0
G2 X16.3 I16.0 J15.0
G2 X15.7335 Y14.8623 I16.0 J15.0
G1 F300.0 Z-2.0
G2 F500.0 X15.7 Y15.0 I16.0 J15.0
G2 X16.3 I16.0 J15.0
G2 X15.7335 Y14.8623 I16.0 J15.0
G0 Z3.0
G0 X19.3019 Y10.2473
G0 Z0.1
G1 F300.0 Z-1.0
G1 F500.0 X21.5743 Y5.4577
G1 X18.0423 Y9.0319
G3 X19.3019 Y10.2473 I13.5 J15.0
G1 F300.0 Z-2.0
G1 F500.0 X21.5743 Y5.4577
G1 X18.0423 Y9.0319
G3 X19.3019 Y10.2473 I13.5 J15.0
G0 Z3.0
G0 Y19.7527
G0 Z0.1
G1 F300.0 Z-1.0
G3 F500.0 X18.0423 Y20.9681 I13.5 J15.0
G1 X21.5743 Y24.5423
G1 X19.3019 Y19.7527
G1 F300.0 Z-2.0
G3 F500.0 X18.0423 Y20.9681 I13.5 J15.0
G1 X21.5743 Y24.5423
G1 X19.3019 Y19.7527
G0 Z3.0
G0 X8.9577 Y9.0319
G0 Z0.1
G1 F300.0 Z-1.0
G1 F500.0 X5.4257 Y5.4577
G1 X7.6981 Y10.2473
G3 X8.9577 Y9.0319 I13.5 J15.0
G1 F300.0 Z-2.0
G1 F500.0 X5.4257 Y5.4577
G1 X7.6981 Y10.2473
G3 X8.9577 Y9.0319 I13.5 J15.0
( Contour2 )
G0 Z3.0
G0 X4.968 Y17.4164
G0 Z0.1
G1 F300.0 Z-1.0
G3 F500.0 X4.0 Y15.0 I7.5 J15.0
G3 X4.968 Y12.5836 I7.5 J15.0
G1 X0.0483 Y2.2143
G3 X0.0 Y2.0 I0.5 J2.0
G1 Y0.5
G3 X0.5 Y0.0 I0.5 J0.5
G1 X4.5
G3 X5.0 Y0.5 I4.5 J0.5
G1 Y2.0
G3 X5.5 Y1.5 I5.5 J2.0
G1 X6.5
G3 X6.8556 Y1.6486 I6.5 J2.0
G1 X12.6821 Y7.5447
G3 X14.3179 I13.5 J15.0
G1 X20.1444 Y1.6486
G3 X20.5 Y1.5 I20.5 J2.0
G1 X21.5
G3 X22.0 Y2.0 I21.5 J2.0
G1 Y0.5
G3 X22.5 Y0.0 I22.5 J0.5
G1 X26.5
G3 X27.0 Y0.5 I26.5 J0.5
G1 Y2.0
G3 X26.9517 Y2.2143 I26.5 J2.0
G1 X20.8856 Y15.0
G1 X26.9517 Y27.7857
G3 X27.0 Y28.0 I26.5 J28.0
G1 Y29.5
G3 X26.5 Y30.0 I26.5 J29.5
G1 X22.5
G3 X22.0 Y29.5 I22.5 J29.5
G1 Y28.0
G3 X21.5 Y28.5 I21.5 J28.0
G1 X20.5
G3 X20.1444 Y28.3514 I20.5 J28.0
G1 X14.3179 Y22.4553
G3 X12.6821 I13.5 J15.0
G1 X6.8556 Y28.3514
G3 X6.5 Y28.5 I6.5 J28.0
G1 X5.5
G3 X5.0 Y28.0 I5.5 J28.0
G1 Y29.5
G3 X4.5 Y30.0 I4.5 J29.5
G1 X0.5
G3 X0.0 Y29.5 I0.5 J29.5
G1 Y28.0
G3 X0.0483 Y27.7857 I0.5 J28.0
G1 X4.968 Y17.4164
G1 F300.0 Z-2.0
G3 F500.0 X4.0 Y15.0 I7.5 J15.0
G3 X4.968 Y12.5836 I7.5 J15.0
G1 X0.0483 Y2.2143
G3 X0.0 Y2.0 I0.5 J2.0
G1 Y0.5
G3 X0.5 Y0.0 I0.5 J0.5
G1 X4.5
G3 X5.0 Y0.5 I4.5 J0.5
G1 Y2.0
G3 X5.5 Y1.5 I5.5 J2.0
G1 X6.5
G3 X6.8556 Y1.6486 I6.5 J2.0
G1 X12.6821 Y7.5447
G3 X14.3179 I13.5 J15.0
G1 X20.1444 Y1.6486
G3 X20.5 Y1.5 I20.5 J2.0
G1 X21.5
G3 X22.0 Y2.0 I21.5 J2.0
G1 Y0.5
G3 X22.5 Y0.0 I22.5 J0.5
G1 X26.5
G3 X27.0 Y0.5 I26.5 J0.5
G1 Y2.0
G3 X26.9517 Y2.2143 I26.5 J2.0
G1 X20.8856 Y15.0
G1 X26.9517 Y27.7857
G3 X27.0 Y28.0 I26.5 J28.0
G1 Y29.5
G3 X26.5 Y30.0 I26.5 J29.5
G1 X22.5
G3 X22.0 Y29.5 I22.5 J29.5
G1 Y28.0
G3 X21.5 Y28.5 I21.5 J28.0
G1 X20.5
G3 X20.1444 Y28.3514 I20.5 J28.0
G1 X14.3179 Y22.4553
G3 X12.6821 I13.5 J15.0
G1 X6.8556 Y28.3514
G3 X6.5 Y28.5 I6.5 J28.0
G1 X5.5
G3 X5.0 Y28.0 I5.5 J28.0
G1 Y29.5
G3 X4.5 Y30.0 I4.5 J29.5
G1 X0.5
G3 X0.0 Y29.5 I0.5 J29.5
G1 Y28.0
G3 X0.0483 Y27.7857 I0.5 J28.0
G1 X4.968 Y17.4164
G0 Z3.0
M5
M30
